humanity-icon-theme/Humanity/actions/24/object-flip-horizontal.svg

<?xml version="1.0" encoding="UTF-8" standalone="no"?>
<!-- Created with Inkscape (http://www.inkscape.org/) -->

<svg
   xmlns:svg="http://www.w3.org/2000/svg"
   xmlns="http://www.w3.org/2000/svg"
   xmlns:xlink="http://www.w3.org/1999/xlink"
   version="1.0"
   width="24"
   height="24"
   id="svg2">
  <defs
     id="defs4">
    <linearGradient
       id="linearGradient4168">
      <stop
         id="stop4170"
         style="stop-color:#f8cd70;stop-opacity:1"
         offset="0" />
      <stop
         id="stop4172"
         style="stop-color:#cc9110;stop-opacity:1"
         offset="1" />
    </linearGradient>
    <linearGradient
       id="linearGradient4873">
      <stop
         id="stop4875"
         style="stop-color:#ffffff;stop-opacity:1"
         offset="0" />
      <stop
         id="stop4877"
         style="stop-color:#ffffff;stop-opacity:0"
         offset="1" />
    </linearGradient>
    <linearGradient
       x1="14.507042"
       y1="7.084507"
       x2="11.774648"
       y2="18.87324"
       id="linearGradient3635"
       xlink:href="#linearGradient4168"
       gradientUnits="userSpaceOnUse"
       gradientTransform="translate(-1.000437,0)" />
    <linearGradient
       x1="12.218946"
       y1="29.014324"
       x2="51.792301"
       y2="1.2515181"
       id="linearGradient3639"
       xlink:href="#linearGradient4873"
       gradientUnits="userSpaceOnUse"
       gradientTransform="matrix(0.3446423,-0.3446422,0.3381098,0.3381098,-0.86599,20.32142)" />
  </defs>
  <g
     id="layer1">
    <g
       transform="matrix(-1,0,0,1,24,0)"
       id="g3369">
      <path
         d="m 17.511803,9.5 0.01404,-3.0000007 c 0,0 6.097157,5.1907167 6.097157,5.1907167 L 17.525839,16.5 l -0.01294,-3 -11.010028,0 -0.012944,3 -6.097157,-4.809284 c 0,0 6.097157,-5.1907167 6.097157,-5.1907167 L 6.503967,9.5 l 11.007836,0 z"
         id="path2849"
         style="fill:url(#linearGradient3635);fill-opacity:1;stroke:#bf8407;stroke-width:1;stroke-linecap:butt;stroke-linejoin:round;stroke-miterlimit:4;stroke-opacity:1;stroke-dasharray:none" />
      <path
         d="m 18.516207,10.5 0,-1.9336739 c 0,0 3.69258,3.1243899 3.69258,3.1243899 l -3.69258,2.792484 0,-1.9832 -13.016644,0 0,1.9832 -3.69258,-2.792484 c 0,0 3.69258,-3.1243899 3.69258,-3.1243899 l 0,1.9336739 13.016644,0 z"
         id="path2851"
         style="opacity:0.4;fill:none;stroke:url(#linearGradient3639);stroke-width:1.00474763;stroke-linecap:butt;stroke-linejoin:miter;stroke-miterlimit:4;stroke-opacity:1;stroke-dasharray:none" />
    </g>
  </g>
</svg>

<?xml version="1.0" encoding="UTF-8" standalone="no"?>
<!-- Created with Inkscape (http://www.inkscape.org/) -->
<svg
   xmlns:svg="http://www.w3.org/2000/svg"
   xmlns="http://www.w3.org/2000/svg"
   xmlns:xlink="http://www.w3.org/1999/xlink"
   version="1.0"
   width="24"
   height="24"
   id="svg3301">
  <defs
     id="defs3303">
    <linearGradient
       id="linearGradient4873">
      <stop
         id="stop4875"
         style="stop-color:#ffffff;stop-opacity:1"
         offset="0" />
      <stop
         id="stop4877"
         style="stop-color:#ffffff;stop-opacity:0"
         offset="1" />
    </linearGradient>
    <linearGradient
       x1="36.460045"
       y1="0.91154361"
       x2="26.418295"
       y2="11.147305"
       id="linearGradient3639"
       xlink:href="#linearGradient4873"
       gradientUnits="userSpaceOnUse"
       gradientTransform="matrix(0.3446423,-0.3446422,0.3381098,0.3381098,-0.86599,20.32142)" />
    <linearGradient
       id="linearGradient3390-178-986-453">
      <stop
         id="stop3624"
         style="stop-color:#bb2b12;stop-opacity:1"
         offset="0" />
      <stop
         id="stop3626"
         style="stop-color:#cd7233;stop-opacity:1"
         offset="1" />
    </linearGradient>
    <linearGradient
       x1="17.962656"
       y1="17.004082"
       x2="17.962656"
       y2="5.9999995"
       id="linearGradient3288"
       xlink:href="#linearGradient3390-178-986-453"
       gradientUnits="userSpaceOnUse" />
    <linearGradient
       id="linearGradient7012-661-145-733-759-865-745-661-970-94">
      <stop
         id="stop3618"
         style="stop-color:#f0c178;stop-opacity:1"
         offset="0" />
      <stop
         id="stop3270"
         style="stop-color:#e18941;stop-opacity:1"
         offset="0.5" />
      <stop
         id="stop3620"
         style="stop-color:#ec4f18;stop-opacity:1"
         offset="1" />
    </linearGradient>
    <linearGradient
       x1="12.019211"
       y1="5.9999995"
       x2="12.019211"
       y2="17.000002"
       id="linearGradient3635"
       xlink:href="#linearGradient7012-661-145-733-759-865-745-661-970-94"
       gradientUnits="userSpaceOnUse"
       gradientTransform="translate(-1.000437,0)" />
    <linearGradient
       id="linearGradient5105-262-943-861">
      <stop
         id="stop2487"
         style="stop-color:#0d0d0d;stop-opacity:1"
         offset="0" />
      <stop
         id="stop2489"
         style="stop-color:#0d0d0d;stop-opacity:0"
         offset="1" />
    </linearGradient>
    <radialGradient
       cx="11.25"
       cy="19.03125"
       r="8.0625"
       fx="11.25"
       fy="19.03125"
       id="radialGradient3299"
       xlink:href="#linearGradient5105-262-943-861"
       gradientUnits="userSpaceOnUse"
       gradientTransform="matrix(-1.4061954,0,0,0.3867044,27.819698,7.522738)" />
  </defs>
  <g
     id="layer1">
    <g
       id="g3328">
      <g
         transform="matrix(-1,0,0,1,24,0)"
         id="g3369">
        <path
           d="M 17.511803,9.5 L 17.525843,6.4999993 C 17.525843,6.4999993 23.623,11.690716 23.623,11.690716 L 17.525839,16.5 L 17.512899,13.5 L 6.502871,13.5 L 6.489927,16.5 L 0.39277,11.690716 C 0.39277,11.690716 6.489927,6.4999993 6.489927,6.4999993 L 6.503967,9.5 L 17.511803,9.5 L 17.511803,9.5 z"
           id="path2849"
           style="fill:url(#linearGradient3635);fill-opacity:1;stroke:url(#linearGradient3288);stroke-width:1;stroke-linecap:butt;stroke-linejoin:round;stroke-miterlimit:4;stroke-dasharray:none;stroke-opacity:1" />
        <path
           d="M 18.516207,10.5 L 18.516207,8.5663261 C 18.516207,8.5663261 22.208787,11.690716 22.208787,11.690716 L 18.516207,14.4832 L 18.516207,12.5 L 5.499563,12.5 L 5.499563,14.4832 L 1.806983,11.690716 C 1.806983,11.690716 5.499563,8.5663261 5.499563,8.5663261 L 5.499563,10.5 L 18.516207,10.5 z"
           id="path2851"
           style="opacity:0.4;fill:none;stroke:url(#linearGradient3639);stroke-width:1.00474763;stroke-linecap:butt;stroke-linejoin:miter;stroke-miterlimit:4;stroke-dasharray:none;stroke-opacity:1" />
      </g>
    </g>
    <path
       d="M 0.66255,14.882198 C 0.66255,16.604113 5.738499,18 12,18 C 18.261501,18 23.337451,16.604113 23.33745,14.882198 C 23.337451,13.160283 18.261501,11.764397 12,11.764397 C 5.738499,11.764397 0.66255,13.160283 0.66255,14.882198 L 0.66255,14.882198 z"
       id="path2621"
       style="opacity:0.16292138;fill:url(#radialGradient3299);fill-opacity:1;fill-rule:nonzero;stroke:none;stroke-width:1;marker:none;visibility:visible;display:inline;overflow:visible" />
  </g>
</svg>
